T: Garrykennedy Castle
M: 4/4
L: 1/8
K: Gmaj
|: (3CDE | FAc=B dcBc | AF ~F2 CFAF | ~ | BCDE F2 :||: AB | cf ~f2 cfaf | cAFA CFAc | ~ | ~F2 AG F2 :|
